X:151
T:Mother and Child
R:polka
S:Martin Norvenius
H:Also played with doubled first part
H:See also reel#129, reel#795
Z:id:hn-polka-151
M:2/4
L:1/8
K:A
cA AB | cd e2 | fd ec | df e>d |
cA AB | cd e2 | fd ec | de/d/ cB ||
|: A2 GE | FD DF | EF GF/E/ | Ac ec |
A2 GE | FD DF | EF GF/E/ |1 A2 A2 :|2 A2 AB ||

